X:1
T:The Humours of Whiskey
C:Trad.
D:Frankie Kennedy and Mairéad Ní Mhaonaigh, "Altan", 1987
D:Solas, "Solas", 1996
M:9/8
L:1/8
R:Slip jig
K:Bmin
|: gfe fBB fBB | gfe fBB fga | gfe fBB f3 | agf efd cBA :|
|: d2e fdf ecA | d2e fed gfe | d2e fdf efg | agf efd cBA :|
